packages/core/src/svgs/tokens/branded/CAP.svg

<svg width="24" height="24" viewBox="0 0 24 24" fill="none" xmlns="http://www.w3.org/2000/svg">
<path d="M21.3437 17.3128C21.7796 17.3128 21.9282 16.7846 21.8564 16.4923C21.3796 15.7795 20.4975 15.5897 19.7642 15.5897C19.4001 15.5897 19.0719 15.6411 18.8411 15.6871C19.2052 16.2 20.9026 17.3128 21.3437 17.3128Z" fill="#1C430D"/>
<path fill-rule="evenodd" clip-rule="evenodd" d="M14.5228 8.64104L14.6253 9.49232C14.7279 9.48206 14.8458 9.45129 14.9432 9.38975C15.0108 9.34995 15.0656 9.29159 15.1011 9.2216C15.1365 9.15162 15.1512 9.07293 15.1433 8.99488C15.1421 8.91655 15.1151 8.84079 15.0664 8.77949C14.9329 8.62053 14.6971 8.62053 14.5228 8.64104ZM14.6561 9.70774C14.774 9.69745 14.9125 9.6564 15.0355 9.5795C15.2048 9.47181 15.3432 9.28206 15.333 8.9795C15.3227 8.83078 15.2817 8.71283 15.2048 8.62053C14.9996 8.38976 14.6561 8.38462 14.3945 8.44104L14.3074 8.46155L14.5587 10.4616L14.7433 10.4308L14.6561 9.71288V9.70774Z" fill="#1C430D"/>
<path d="M12.9948 8.41025C13.1794 8.73846 13.3333 9.07691 13.482 9.42563L13.7948 10.1744L13.5897 10.2564L13.3179 9.60512L12.6615 9.81024C12.5846 10.0615 12.5128 10.2974 12.4718 10.4615L12.2564 10.4051L12.4615 9.68712C12.6051 9.24614 12.7538 8.81537 12.9948 8.41025ZM12.7385 9.55383L13.2308 9.39998L12.9898 8.87691C12.9128 9.0564 12.8256 9.30255 12.7435 9.55383H12.7385ZM11.3385 9.06153L11.3179 8.95896L11.564 8.92306L11.6461 9.37948L11.4153 9.44102C11.3948 9.40512 11.3487 9.34358 11.282 9.29229C11.223 9.2424 11.1491 9.21353 11.0718 9.21024C11.0462 9.21024 10.9948 9.23075 10.9179 9.29229C10.6359 9.52306 10.4564 9.91279 10.4564 10.2462C10.4564 10.5179 10.6615 10.759 10.9897 10.759C11.041 10.759 11.1281 10.7281 11.241 10.6563C11.3435 10.5897 11.4564 10.5026 11.5487 10.4L11.7435 10.5333C11.6358 10.6513 11.5077 10.759 11.3846 10.8358C11.2615 10.9128 11.1231 10.9744 10.9897 10.9744C10.5282 10.9744 10.2051 10.6359 10.2051 10.2462C10.2051 9.85643 10.4153 9.39999 10.7487 9.13333C10.841 9.0564 10.9538 8.99486 11.0718 8.99486C11.1743 8.99486 11.2615 9.0205 11.3385 9.06153ZM8.62563 9.75389L8.57435 9.46666L8.79998 9.43588L8.85127 9.7077C9.0205 9.68712 9.19999 9.69226 9.32819 9.7077L9.29743 9.91279C9.16108 9.89783 9.02351 9.89783 8.88717 9.91279L8.96922 10.3949C9.27691 10.4359 9.69224 10.5333 9.69224 10.8769C9.69224 11.1692 9.4461 11.3794 9.16921 11.4871L9.2564 11.9692L9.03076 12L8.94871 11.5488L8.82051 11.5589C8.63075 11.5589 8.44101 11.4564 8.30768 11.3435L8.46153 11.1948C8.5487 11.2717 8.68717 11.3538 8.82051 11.3538C8.84102 11.3538 8.87178 11.3538 8.91281 11.3435L8.77434 10.5744C8.66239 10.5633 8.55112 10.5461 8.44101 10.523C8.30256 10.4871 8.15383 10.4154 8.15383 10.2666C8.15383 10.0102 8.35896 9.83071 8.62563 9.75389ZM8.66153 9.95898C8.50768 10.0102 8.37948 10.1129 8.37948 10.2666C8.37948 10.3025 8.48204 10.318 8.50255 10.3231C8.56922 10.3384 8.64614 10.3538 8.73332 10.3641L8.66665 9.94869L8.66153 9.95898ZM9.01025 10.6051L9.12819 11.2769C9.30768 11.1999 9.46668 11.0667 9.46668 10.8769C9.46668 10.6821 9.17435 10.6359 9.00511 10.6051H9.01025ZM17.4922 12.2564C17.7179 12.3692 18.1076 12.6513 18.5692 13.0154C19.5773 13.8147 20.5235 14.6889 21.3999 15.6308C21.5794 15.8256 21.723 16.0102 21.8307 16.1692C21.9332 16.3231 22 16.4564 22 16.5794C22 16.9897 21.8307 17.405 21.3589 17.405C21.1538 17.405 20.8256 17.2923 20.3999 17.0461C19.9846 16.8102 19.4615 16.4308 18.8615 15.882L18.5436 16.0461C17.6513 16.5385 16.7743 17.0718 15.8872 17.5744C15.1692 17.9794 14.441 18.3794 13.8256 18.6769C13.4051 18.882 12.8871 19.1794 12.4103 19.1794C12.0872 19.1794 11.7334 18.9744 11.4512 18.8359C9.45926 17.8422 7.62702 16.5562 6.01538 15.0205C8.23588 14.4205 10.4615 13.841 12.6923 13.2871C14.0569 12.9368 15.4299 12.6204 16.8102 12.3385C17.0153 12.2975 17.3846 12.2564 17.4922 12.2564ZM6.38461 15.1076C7.94115 16.5089 9.6695 17.7066 11.5281 18.6717C11.7846 18.7949 12.1179 18.9948 12.4103 18.9948C12.8563 18.9948 13.3538 18.6973 13.7436 18.5128C14.3589 18.2154 15.082 17.8205 15.7948 17.4153C16.6872 16.9128 17.5589 16.3795 18.4563 15.8872C18.6358 15.7846 18.7743 15.7128 18.8461 15.6923L18.8974 15.6718L18.9384 15.7077C19.4132 16.1546 19.9341 16.55 20.4923 16.8872C20.7534 17.0638 21.0517 17.1778 21.364 17.2205C21.723 17.2205 21.8154 16.8872 21.8154 16.5845C21.8154 16.5333 21.7743 16.4154 21.6769 16.2666C21.5521 16.0849 21.415 15.9117 21.2666 15.7487C20.3944 14.8161 19.4533 13.9504 18.4512 13.159C18.0102 12.8102 17.641 12.5436 17.4307 12.4307C17.3128 12.4359 17.1128 12.4666 16.841 12.518C15.4658 12.8001 14.0979 13.1165 12.7385 13.4666C10.5333 14.0102 8.05641 14.6615 6.37949 15.1076H6.38461Z" fill="#1C430D"/>
<path d="M4.27692 6.61542C5.7282 5.38466 8.22049 4.82056 10.7692 4.82056C12.0411 4.82056 12.9231 4.92825 13.5538 5.14363C14.1949 5.36415 14.5795 5.68723 14.8769 6.10261L14.882 6.10773C16.682 9.17439 17.3795 11.5231 17.5076 12.3231L17.323 12.3539C17.2051 11.5847 16.5179 9.25644 14.7282 6.20516C14.4297 5.77918 13.9959 5.46655 13.4974 5.31799C12.8872 5.11287 12.0308 5.00518 10.7692 5.00518C8.23588 5.00518 5.79486 5.56927 4.39487 6.75388C3.65048 7.44872 3.09014 8.31741 2.7641 9.28208C2.3956 10.2597 2.19953 11.2938 2.18462 12.3385C2.18462 13.2769 2.4 13.9641 2.81025 14.4154C3.22051 14.8667 3.8359 15.1026 4.66666 15.1026C6.15384 15.1026 7.51794 14.6616 8.03075 14.4924L8.1846 14.441L8.23588 14.6205L8.08717 14.6719C7.57947 14.8308 6.18973 15.2871 4.66666 15.2871C3.8 15.2871 3.12821 15.041 2.67693 14.5384C2.22052 14.041 2 13.3026 2 12.3385C2 11.3743 2.20513 10.2513 2.59487 9.22054C2.93121 8.22629 3.5092 7.33113 4.27692 6.61542Z" fill="#1C430D"/>
<path d="M6.35918 9.63078C6.35918 7.75901 6.55405 6.08209 6.67713 5.47696C2.27202 6.81029 2.09253 11.1847 2.09253 12.8103C2.09253 14.441 3.51817 15.2103 4.77457 15.2103C5.78482 15.2103 7.19508 14.8462 7.76944 14.6616C7.28225 13.7641 6.35918 11.5026 6.35918 9.63593V9.63078Z" fill="#1C430D"/>
</svg>

<svg xmlns="http://www.w3.org/2000/svg" width="24" height="24" fill="none" viewBox="0 0 24 24">
    <path fill="#1C430D" d="M21.344 17.313c.436 0 .584-.528.512-.82-.476-.713-1.359-.903-2.092-.903-.364 0-.692.051-.923.097.364.513 2.062 1.626 2.503 1.626"/>
    <path fill="#1C430D" fill-rule="evenodd" d="m14.523 8.641.102.851a.75.75 0 0 0 .318-.102.41.41 0 0 0 .2-.395.36.36 0 0 0-.077-.216c-.133-.158-.369-.158-.543-.138m.133 1.067a.9.9 0 0 0 .38-.129c.169-.107.307-.297.297-.6a.6.6 0 0 0-.128-.358c-.205-.231-.549-.236-.81-.18l-.088.02.252 2 .184-.03-.087-.718z" clip-rule="evenodd"/>
    <path fill="#1C430D" d="M12.995 8.41c.184.328.338.667.487 1.016l.313.748-.205.082-.272-.65-.656.204c-.077.252-.15.487-.19.651l-.216-.056.205-.718c.144-.44.293-.872.534-1.277m-.256 1.144.492-.154-.241-.523c-.077.18-.164.426-.247.677zm-1.4-.492-.021-.103.246-.036.082.456-.23.062a.5.5 0 0 0-.134-.149.35.35 0 0 0-.21-.082c-.026 0-.077.02-.154.082a1.3 1.3 0 0 0-.462.954.51.51 0 0 0 .534.513c.051 0 .138-.03.251-.103a1.5 1.5 0 0 0 .308-.256l.194.133a1.8 1.8 0 0 1-.358.303.8.8 0 0 1-.395.138c-.462 0-.785-.338-.785-.728s.21-.846.544-1.113a.53.53 0 0 1 .323-.138c.102 0 .19.026.267.067m-2.713.692-.052-.287.226-.031.051.272c.17-.02.349-.016.477 0l-.03.205a2 2 0 0 0-.41 0l.081.482c.308.04.723.138.723.482 0 .292-.246.502-.523.61l.087.482-.225.031-.082-.451-.128.01c-.19 0-.38-.103-.513-.215l.154-.15c.087.078.225.16.359.16.02 0 .05 0 .092-.01l-.139-.77a3 3 0 0 1-.333-.051c-.138-.036-.287-.108-.287-.256 0-.257.205-.436.472-.513m.036.205c-.154.051-.283.154-.283.308 0 .036.103.051.124.056q.1.024.23.041l-.066-.415zm.348.646.118.672c.18-.077.339-.21.339-.4 0-.195-.293-.241-.462-.272zm8.482 1.651c.226.113.616.395 1.077.76a25.5 25.5 0 0 1 2.83 2.615c.18.195.324.38.432.538.102.154.169.287.169.41 0 .41-.17.826-.641.826-.205 0-.533-.113-.96-.359-.414-.236-.937-.615-1.538-1.164l-.317.164c-.893.492-1.77 1.026-2.657 1.528a40 40 0 0 1-2.061 1.103c-.42.205-.939.502-1.416.502-.323 0-.677-.205-.959-.343a22.3 22.3 0 0 1-5.436-3.815q3.33-.902 6.677-1.734a85 85 0 0 1 4.118-.949 6 6 0 0 1 .682-.082M6.385 15.108a24.7 24.7 0 0 0 5.143 3.564c.257.123.59.323.882.323.446 0 .944-.298 1.334-.482a37 37 0 0 0 2.05-1.098c.893-.502 1.765-1.035 2.662-1.528a2.4 2.4 0 0 1 .39-.195l.051-.02.041.036c.475.447.996.842 1.554 1.18.261.176.56.29.872.332.359 0 .451-.333.451-.636 0-.05-.04-.169-.138-.317a5 5 0 0 0-.41-.518 25.5 25.5 0 0 0-2.816-2.59c-.44-.349-.81-.615-1.02-.728a5 5 0 0 0-.59.087 85 85 0 0 0-4.103.949 381 381 0 0 0-6.359 1.64z"/>
    <path fill="#1C430D" d="M4.277 6.615c1.451-1.23 3.943-1.794 6.492-1.794 1.272 0 2.154.107 2.785.323.64.22 1.025.543 1.323.959l.005.005c1.8 3.066 2.498 5.415 2.626 6.215l-.185.03c-.118-.768-.805-3.097-2.595-6.148a2.3 2.3 0 0 0-1.23-.887c-.61-.205-1.467-.313-2.729-.313-2.533 0-4.974.564-6.374 1.749a6.15 6.15 0 0 0-1.63 2.528 9 9 0 0 0-.58 3.057c0 .938.215 1.625.625 2.076s1.026.688 1.857.688c1.487 0 2.85-.441 3.364-.61l.154-.052.05.18-.148.05c-.508.16-1.897.616-3.42.616-.867 0-1.539-.246-1.99-.749-.456-.497-.677-1.235-.677-2.2 0-.964.205-2.087.595-3.117a6.34 6.34 0 0 1 1.682-2.606"/>
    <path fill="#1C430D" d="M6.36 9.63c0-1.871.194-3.548.317-4.153-4.405 1.333-4.584 5.708-4.584 7.333 0 1.631 1.425 2.4 2.682 2.4 1.01 0 2.42-.364 2.994-.548-.487-.898-1.41-3.16-1.41-5.026z"/>
</svg>
